public/images/star.svg

<svg xmlns:xlink="http://www.w3.org/1999/xlink" xmlns="http://www.w3.org/2000/svg" width="16" height="15" viewBox="0 0 16 15" fill="none">
<path d="M7.04894 0.92705C7.3483 0.00573924 8.6517 0.00573965 8.95106 0.92705L10.0206 4.21885C10.1545 4.63087 10.5385 4.90983 10.9717 4.90983H14.4329C15.4016 4.90983 15.8044 6.14945 15.0207 6.71885L12.2205 8.75329C11.87 9.00793 11.7234 9.4593 11.8572 9.87132L12.9268 13.1631C13.2261 14.0844 12.1717 14.8506 11.388 14.2812L8.58779 12.2467C8.2373 11.9921 7.7627 11.9921 7.41221 12.2467L4.61204 14.2812C3.82833 14.8506 2.77385 14.0844 3.0732 13.1631L4.14277 9.87132C4.27665 9.4593 4.12999 9.00793 3.7795 8.75329L0.979333 6.71885C0.195619 6.14945 0.598395 4.90983 1.56712 4.90983H5.02832C5.46154 4.90983 5.8455 4.63087 5.97937 4.21885L7.04894 0.92705Z" fill="#FF8F50"/>
</svg>

<svg xmlns="http://www.w3.org/2000/svg" width="16" height="15" fill="none"><path fill="#FF8F50" d="M7.049.927c.3-.921 1.603-.921 1.902 0l1.07 3.292a1 1 0 0 0 .95.69h3.462c.969 0 1.371 1.24.588 1.81l-2.8 2.034a1 1 0 0 0-.364 1.118l1.07 3.292c.3.921-.755 1.688-1.539 1.118l-2.8-2.034a1 1 0 0 0-1.176 0l-2.8 2.034c-.784.57-1.838-.197-1.539-1.118l1.07-3.292a1 1 0 0 0-.363-1.118L.98 6.72c-.784-.57-.382-1.81.587-1.81h3.461a1 1 0 0 0 .951-.69z"/></svg>
